images_colibrex_svg/cmd/sc_addfield.svg

<svg viewBox="0 0 16 16" xmlns="http://www.w3.org/2000/svg"><path d="m3 1v7c0-1.645014 1.354986-3 3-3h1a1.0001 1.0001 0 0 1 1 1v1a1.0001 1.0001 0 0 1 -1 1h4a1.0001 1.0001 0 0 1 -1-1v-1a1.0001 1.0001 0 0 1 1-1h1c .351852 0 .685106.0739426 1 .1875v-1.4824219l-2.695312-2.7050781zm3 7v .4042969c.2990206-.1860031.5890973-.4042969.9609375-.4042969zm5.039062 0c .371841 0 .661917.2182938.960938.4042969v-.4042969zm-5.039062 3.595703v.123047.28125h.9609375c-.3718404 0-.6619169-.218294-.9609375-.404297zm6 0c-.299021.186003-.589097.404297-.960938.404297h.960938v-.28125zm-9 .404297v3h3c-1.6449929 0-3-1.354976-3-3zm4 0a1.0001 1.0001 0 0 1 1 1v1a1.0001 1.0001 0 0 1 -1 1h4a1.0001 1.0001 0 0 1 -1-1v-1a1.0001 1.0001 0 0 1 1-1zm6 2.8125c-.314893.113557-.648153.1875-1 .1875h1z" fill="#fff"/><path d="m3 0c-.554 0-1 .446-1 1v14c0 .554.446 1 1 1h10c .554 0 1-.446 1-1v-.787109c-.289193.261879-.627024.465106-1 .599609v.1875h-1-1-4-1-3v-3-4-7h6v3.5c0 .277.223.5.5.5h1.5 1 1v .1875c.372978.1345035.710808.3377288 1 .5996094v-1.2871094-.8632812l-3.636719-3.6367188h-.863281zm7 1 3 3h-3z" fill="#808080"/><g fill="#d65532"><rect height="2" ry=".961864" width="6" x="6" y="9"/><path d="m6 6c-1.104522 0-2 .895478-2 2v4c0 1.104597.8954308 2 2 2h1v-1h-1c-.5522842 0-1-.447701-1-1v-.28125-3.71875c0-.552299.4267669-1 1-1h1v-1z"/><path d="m12 6c1.104522 0 2 .895478 2 2v4c0 1.104597-.895431 2-2 2h-1v-1h1c .552284 0 1-.447701 1-1v-.28125-3.71875c0-.552299-.426767-1-1-1h-1v-1z"/></g></svg>

<?xml version="1.0" encoding="UTF-8" standalone="no"?>
<svg
   xmlns:dc="http://purl.org/dc/elements/1.1/"
   xmlns:cc="http://creativecommons.org/ns#"
   xmlns:rdf="http://www.w3.org/1999/02/22-rdf-syntax-ns#"
   xmlns:svg="http://www.w3.org/2000/svg"
   xmlns="http://www.w3.org/2000/svg"
   xmlns:xlink="http://www.w3.org/1999/xlink"
   xmlns:sodipodi="http://sodipodi.sourceforge.net/DTD/sodipodi-0.dtd"
   xmlns:inkscape="http://www.inkscape.org/namespaces/inkscape"
   viewBox="0 0 16 16"
   version="1.1"
   id="svg14"
   sodipodi:docname="sc_addfield.svg"
   inkscape:version="0.92.3 (unknown)">
  <metadata
     id="metadata20">
    <rdf:RDF>
      <cc:Work
         rdf:about="">
        <dc:format>image/svg+xml</dc:format>
        <dc:type
           rdf:resource="http://purl.org/dc/dcmitype/StillImage" />
        <dc:title></dc:title>
      </cc:Work>
    </rdf:RDF>
  </metadata>
  <defs
     id="defs18">
    <linearGradient
       inkscape:collect="always"
       xlink:href="#linearGradient882"
       id="linearGradient884"
       x1="18"
       y1="11"
       x2="19.428572"
       y2="9.5714283"
       gradientUnits="userSpaceOnUse"
       gradientTransform="matrix(1.05,0,0,1.05,-8.9,-7.55)" />
    <linearGradient
       inkscape:collect="always"
       id="linearGradient882">
      <stop
         style="stop-color:#ffffff;stop-opacity:1;"
         offset="0"
         id="stop878" />
      <stop
         id="stop886"
         offset="0.77967989"
         style="stop-color:#f1f1f1;stop-opacity:1" />
      <stop
         style="stop-color:#d5d5d5;stop-opacity:1"
         offset="1"
         id="stop880" />
    </linearGradient>
    <radialGradient
       inkscape:collect="always"
       xlink:href="#linearGradient870"
       id="radialGradient856"
       cx="10.994179"
       cy="4.4284401"
       fx="10.994179"
       fy="4.4284401"
       r="5"
       gradientTransform="matrix(1.4,3.5294381e-8,-1.4943762e-8,1.2,-4.3918502,-2.3141285)"
       gradientUnits="userSpaceOnUse" />
    <linearGradient
       inkscape:collect="always"
       id="linearGradient870">
      <stop
         style="stop-color:#d7d7d7;stop-opacity:1"
         offset="0"
         id="stop866" />
      <stop
         id="stop874"
         offset="0.49894297"
         style="stop-color:#f7f7f7;stop-opacity:1" />
      <stop
         style="stop-color:#ffffff;stop-opacity:1"
         offset="1"
         id="stop868" />
    </linearGradient>
  </defs>
  <sodipodi:namedview
     pagecolor="#ffffff"
     bordercolor="#666666"
     borderopacity="1"
     objecttolerance="10"
     gridtolerance="10"
     guidetolerance="10"
     inkscape:pageopacity="0"
     inkscape:pageshadow="2"
     inkscape:window-width="1366"
     inkscape:window-height="706"
     id="namedview16"
     showgrid="false"
     inkscape:zoom="14.75"
     inkscape:cx="11.635417"
     inkscape:cy="9.1942881"
     inkscape:window-x="-1"
     inkscape:window-y="-1"
     inkscape:window-maximized="0"
     inkscape:current-layer="svg14" />
  <path
     style="fill:url(#radialGradient856);fill-opacity:1"
     d="M 3 1 L 3 8 C 3 6.354986 4.354986 5 6 5 L 7 5 A 1.0001 1.0001 0 0 1 8 6 L 8 7 A 1.0001 1.0001 0 0 1 7 8 L 11 8 A 1.0001 1.0001 0 0 1 10 7 L 10 6 A 1.0001 1.0001 0 0 1 11 5 L 12 5 C 12.351852 5 12.685106 5.0739426 13 5.1875 L 13 3.7050781 L 10.304688 1 L 3 1 z M 6 8 L 6 8.4042969 C 6.2990206 8.2182938 6.5890973 8 6.9609375 8 L 6 8 z M 11.039062 8 C 11.410903 8 11.700979 8.2182938 12 8.4042969 L 12 8 L 11.039062 8 z M 6 11.595703 L 6 11.71875 L 6 12 L 6.9609375 12 C 6.5890971 12 6.2990206 11.781706 6 11.595703 z M 12 11.595703 C 11.700979 11.781706 11.410903 12 11.039062 12 L 12 12 L 12 11.71875 L 12 11.595703 z M 3 12 L 3 15 L 6 15 C 4.3550071 15 3 13.645024 3 12 z M 7 12 A 1.0001 1.0001 0 0 1 8 13 L 8 14 A 1.0001 1.0001 0 0 1 7 15 L 11 15 A 1.0001 1.0001 0 0 1 10 14 L 10 13 A 1.0001 1.0001 0 0 1 11 12 L 7 12 z M 13 14.8125 C 12.685107 14.926057 12.351847 15 12 15 L 13 15 L 13 14.8125 z "
     id="path2-3" />
  <path
     d="m3 0c-.554 0-1 .446-1 1v14c0 .554.446 1 1 1h10c .554 0 1-.446 1-1v-.787109c-.289193.261879-.627024.465106-1 .599609v.1875h-1-1-4-1-3v-3-4-7h6v3.5c0 .277.223.5.5.5h1.5 1 1v .1875c.372978.1345035.710808.3377288 1 .5996094v-1.2871094-.8632812l-3.636719-3.6367188h-.863281zm7 1 3 3h-3z"
     fill="#808080"
     id="path4"
     style="fill:#98989d;fill-opacity:1" />
  <g
     fill="#d65532"
     id="g12"
     style="fill:#0a84ff;fill-opacity:1">
    <rect
       height="2"
       ry=".961864"
       width="6"
       x="6"
       y="9"
       id="rect6"
       style="fill:#0a84ff;fill-opacity:1" />
    <path
       d="m6 6c-1.104522 0-2 .895478-2 2v4c0 1.104597.8954308 2 2 2h1v-1h-1c-.5522842 0-1-.447701-1-1v-.28125-3.71875c0-.552299.4267669-1 1-1h1v-1z"
       id="path8"
       style="fill:#0a84ff;fill-opacity:1" />
    <path
       d="m12 6c1.104522 0 2 .895478 2 2v4c0 1.104597-.895431 2-2 2h-1v-1h1c .552284 0 1-.447701 1-1v-.28125-3.71875c0-.552299-.426767-1-1-1h-1v-1z"
       id="path10"
       style="fill:#0a84ff;fill-opacity:1" />
  </g>
  <path
     inkscape:connector-curvature="0"
     id="path876"
     d="m 10,1 3,3 h -3 z"
     style="fill:url(#linearGradient884);fill-opacity:1;stroke:none;stroke-width:1.04999995px;stroke-linecap:butt;stroke-linejoin:miter;stroke-opacity:1"
     sodipodi:nodetypes="cccc" />
</svg>
